**kern	**kern	**dynam
*part1	*part1	*part1
*staff2	*staff1	*
*I"Piano	*	*
*clefF4	*clefG2	*
*k[b-e-]	*k[b-e-]	*
=1	=1	=1
!	!	!LO:DY:a
[4.f>	8.a^^L 8.ff	f
.	16aK 16ff	.
.	8aJ 8ff	.
=	=	=
!	!LO:TX:a:i:t=rit.	!
4.f_>	(8cc~L 8gg	.
.	8a~ 8ff	.
.	8cc~J) 8gg	.
=	=	=
4.f;]>	4.ff; 4.aa	.
=	=	=
16r	4.ryy	.
!	!LO:TX:a:i:t=poco rit.	!LO:DY:a
(16FLL	.	p
16G	.	.
16B-	.	.
16A	.	.
16cJJ)	.	.
=	=	=
4.ryy	(16enLL	.
.	16g	.
.	16f	.
.	16e	.
.	16f	.
.	16gJJ)	.
=	=	=
4.Bn>	(4.f 4.a-X 4.dd	p
=	=	=
4.c>	4.f 4.a-X 4.cc	.
=	=	=
*-	*-	*-
!!!system-decoration: {(s1,s2)}
!!!RDF**kern: > = above
